icons/eip155:999/erc20:0xb88339CB7199b77E23DB6E890353E22632Ba630f.svg

<?xml version="1.0" encoding="UTF-8" standalone="no"?>
<svg
   width="512"
   height="512"
   viewBox="0 0 512 512"
   fill="none"
   version="1.1"
   id="svg4"
   sodipodi:docname="erc20:0xb88339CB7199b77E23DB6E890353E22632Ba630f.svg"
   inkscape:version="1.4 (e7c3feb1, 2024-10-09)"
   xmlns:inkscape="http://www.inkscape.org/namespaces/inkscape"
   xmlns:sodipodi="http://sodipodi.sourceforge.net/DTD/sodipodi-0.dtd"
   xmlns="http://www.w3.org/2000/svg"
   xmlns:svg="http://www.w3.org/2000/svg">
  <defs
     id="defs4" />
  <sodipodi:namedview
     id="namedview4"
     pagecolor="#ffffff"
     bordercolor="#000000"
     borderopacity="0.25"
     inkscape:showpageshadow="2"
     inkscape:pageopacity="0.0"
     inkscape:pagecheckerboard="0"
     inkscape:deskcolor="#d1d1d1"
     inkscape:zoom="0.27083333"
     inkscape:cx="252.92308"
     inkscape:cy="254.76923"
     inkscape:window-width="1512"
     inkscape:window-height="949"
     inkscape:window-x="0"
     inkscape:window-y="33"
     inkscape:window-maximized="0"
     inkscape:current-layer="g4" />
  <g
     id="g4"
     transform="matrix(5.4468085,0,0,5.4468085,-5.4468085,-5.4468085)">
    <rect
       style="fill:#0b53bf;fill-opacity:1;stroke-width:0.307084"
       id="rect4"
       width="94"
       height="94"
       x="1.0000001"
       y="1.0000001" />
    <path
       d="m 56.4609,13.7778 v 6.0513 c 12.0732,3.6425 20.915,14.8637 20.915,28.1706 0,13.3069 -8.8418,24.5281 -20.915,28.1706 v 6.0513 c 15.3925,-3.76 26.79,-17.6544 26.79,-34.2219 0,-16.5675 -11.3975,-30.4619 -26.79,-34.2219 z"
       fill="#ffffff"
       id="path2" />
    <path
       d="m 18.625,47.9997 c 0,-13.3069 8.8419,-24.5281 20.915,-28.1706 v -6.0513 c -15.3925,3.76 -26.79,17.6544 -26.79,34.2219 0,16.5675 11.3975,30.4619 26.79,34.2219 V 76.1703 C 27.4669,72.5572 18.625,61.3066 18.625,47.9997 Z"
       fill="#ffffff"
       id="path3" />
    <path
       d="m 60.6319,54.5506 c 0,-12.0144 -18.8294,-7.0793 -18.8294,-13.7181 0,-2.3794 1.9094,-3.9069 5.5519,-3.9069 4.3475,0 5.8456,2.115 6.3156,4.9644 h 5.9925 c -0.5346,-5.3474 -3.6037,-8.7238 -8.7243,-9.7296 v -4.7229 h -5.875 v 4.5543 c -5.6098,0.7144 -9.1357,3.9812 -9.1357,8.8407 0,12.0731 18.8588,7.5494 18.8588,14.0706 0,2.4675 -2.3794,4.1125 -6.4038,4.1125 -5.2581,0 -6.9912,-2.3206 -7.6375,-5.5225 h -5.8456 c 0.3787,5.8571 3.9903,9.5228 10.1638,10.4376 v 4.6318 h 5.875 v -4.5702 c 6.0251,-0.7784 9.6937,-4.2834 9.6937,-9.4417 z"
       fill="#ffffff"
       id="path4" />
  </g>
</svg>

<svg width="96" height="96" viewBox="0 0 96 96" fill="none" xmlns="http://www.w3.org/2000/svg">
<path d="M48 95C73.9574 95 95 73.9574 95 48C95 22.0426 73.9574 1 48 1C22.0426 1 1 22.0426 1 48C1 73.9574 22.0426 95 48 95Z" fill="#0B53BF"/>
<path d="M56.4609 13.7778V19.8291C68.5341 23.4716 77.3759 34.6928 77.3759 47.9997C77.3759 61.3066 68.5341 72.5278 56.4609 76.1703V82.2216C71.8534 78.4616 83.2509 64.5672 83.2509 47.9997C83.2509 31.4322 71.8534 17.5378 56.4609 13.7778Z" fill="white"/>
<path d="M18.625 47.9997C18.625 34.6928 27.4669 23.4716 39.54 19.8291V13.7778C24.1475 17.5378 12.75 31.4322 12.75 47.9997C12.75 64.5672 24.1475 78.4616 39.54 82.2216V76.1703C27.4669 72.5572 18.625 61.3066 18.625 47.9997Z" fill="white"/>
<path d="M60.6319 54.5506C60.6319 42.5362 41.8025 47.4713 41.8025 40.8325C41.8025 38.4531 43.7119 36.9256 47.3544 36.9256C51.7019 36.9256 53.2 39.0406 53.67 41.89H59.6625C59.1279 36.5426 56.0588 33.1662 50.9382 32.1604V27.4375H45.0632V31.9918C39.4534 32.7062 35.9275 35.973 35.9275 40.8325C35.9275 52.9056 54.7863 48.3819 54.7863 54.9031C54.7863 57.3706 52.4069 59.0156 48.3825 59.0156C43.1244 59.0156 41.3913 56.695 40.745 53.4931H34.8994C35.2781 59.3502 38.8897 63.0159 45.0632 63.9307V68.5625H50.9382V63.9923C56.9633 63.2139 60.6319 59.7089 60.6319 54.5506Z" fill="white"/>
</svg>
